assets/logo/jefworks_logo.svg

<?xml version="1.0" encoding="utf-8"?>
<!-- Generator: Adobe Illustrator 16.0.0, SVG Export Plug-In . SVG Version: 6.00 Build 0)  -->
<!DOCTYPE svg PUBLIC "-//W3C//DTD SVG 1.1//EN" "http://www.w3.org/Graphics/SVG/1.1/DTD/svg11.dtd">
<svg version="1.1" id="Layer_1" xmlns="http://www.w3.org/2000/svg" xmlns:xlink="http://www.w3.org/1999/xlink" x="0px" y="0px"
	 width="80px" height="80px" viewBox="0 0 80 80" enable-background="new 0 0 80 80" xml:space="preserve">
<g>
	<g>
		<path fill="#939598" d="M42.618,19.044c4.236,0,8.473,0,12.709,0c3.225,0,3.225-5,0-5c-0.161,0-0.323,0-0.484,0
			c-3.225,0-3.225,5,0,5c0.161,0,0.323,0,0.484,0c3.225,0,3.225-5,0-5c-4.236,0-8.473,0-12.709,0
			C39.394,14.044,39.394,19.044,42.618,19.044L42.618,19.044z"/>
	</g>
</g>
<g>
	<g>
		<path fill="#6AB4BB" d="M60.815,19.044c3.144,0,6.288,0,9.432,0c3.225,0,3.225-5,0-5c-0.119,0-0.239,0-0.358,0
			c-3.225,0-3.225,5,0,5c0.119,0,0.239,0,0.358,0c3.225,0,3.225-5,0-5c-3.144,0-6.288,0-9.432,0
			C57.591,14.044,57.591,19.044,60.815,19.044L60.815,19.044z"/>
	</g>
</g>
<g>
	<g>
		<path fill="#6AB4BB" d="M40.42,30.553c3.021,0,6.04,0,9.061,0c3.225,0,3.225-5,0-5c-0.114,0-0.229,0-0.343,0c-3.225,0-3.225,5,0,5
			c0.114,0,0.229,0,0.343,0c3.225,0,3.225-5,0-5c-3.021,0-6.04,0-9.061,0C37.196,25.553,37.196,30.553,40.42,30.553L40.42,30.553z"
			/>
	</g>
</g>
<g>
	<g>
		<path fill="#939598" d="M54.968,30.553c2.694,0,5.388,0,8.082,0c3.225,0,3.225-5,0-5c-0.104,0-0.206,0-0.31,0
			c-3.225,0-3.225,5,0,5c0.104,0,0.206,0,0.31,0c3.225,0,3.225-5,0-5c-2.694,0-5.388,0-8.082,0
			C51.743,25.553,51.743,30.553,54.968,30.553L54.968,30.553z"/>
	</g>
</g>
<g>
	<g>
		<path fill="#6AB4BB" d="M40.42,42.446c3.877,0,7.753,0,11.63,0c3.225,0,3.225-5,0-5c-0.147,0-0.295,0-0.442,0
			c-3.225,0-3.225,5,0,5c0.147,0,0.295,0,0.442,0c3.225,0,3.225-5,0-5c-3.877,0-7.753,0-11.63,0
			C37.196,37.446,37.196,42.446,40.42,42.446L40.42,42.446z"/>
	</g>
</g>
<g>
	<g>
		<path fill="#6AB4BB" d="M64.182,7.151c3.309,0,6.616,0,9.925,0c3.225,0,3.225-5,0-5c-0.126,0-0.252,0-0.378,0
			c-3.225,0-3.225,5,0,5c0.126,0,0.252,0,0.378,0c3.225,0,3.225-5,0-5c-3.309,0-6.616,0-9.925,0
			C60.957,2.151,60.957,7.151,64.182,7.151L64.182,7.151z"/>
	</g>
</g>
<g>
	<g>
		<path fill="#285E64" d="M75.396,8.401c4.837,0,4.837-7.5,0-7.5S70.559,8.401,75.396,8.401L75.396,8.401z"/>
	</g>
</g>
<g>
	<g>
		<path fill="#285E64" d="M71.677,20.294c4.837,0,4.837-7.5,0-7.5S66.84,20.294,71.677,20.294L71.677,20.294z"/>
	</g>
</g>
<g>
	<g>
		<path fill="#285E64" d="M63.05,31.803c4.837,0,4.837-7.5,0-7.5S58.213,31.803,63.05,31.803L63.05,31.803z"/>
	</g>
</g>
<g>
	<g>
		<path fill="#285E64" d="M51.743,43.408c4.837,0,4.837-7.5,0-7.5S46.906,43.408,51.743,43.408L51.743,43.408z"/>
	</g>
</g>
<g>
	<g>
		<path fill="#6AB4BB" d="M37.362,60.844c-4.237,0-8.473,0-12.71,0c-3.224,0-3.224,5,0,5c0.161,0,0.322,0,0.483,0
			c3.224,0,3.224-5,0-5c-0.161,0-0.322,0-0.483,0c-3.224,0-3.224,5,0,5c4.237,0,8.473,0,12.71,0
			C40.586,65.844,40.586,60.844,37.362,60.844L37.362,60.844z"/>
	</g>
</g>
<g>
	<g>
		<path fill="#939598" d="M19.164,60.844c-3.144,0-6.288,0-9.432,0c-3.224,0-3.224,5,0,5c0.12,0,0.24,0,0.36,0c3.224,0,3.224-5,0-5
			c-0.12,0-0.24,0-0.36,0c-3.224,0-3.224,5,0,5c3.144,0,6.288,0,9.432,0C22.388,65.844,22.388,60.844,19.164,60.844L19.164,60.844z"
			/>
	</g>
</g>
<g>
	<g>
		<path fill="#939598" d="M39.561,49.336c-3.02,0-6.04,0-9.06,0c-3.224,0-3.224,5,0,5c0.114,0,0.229,0,0.343,0c3.224,0,3.224-5,0-5
			c-0.114,0-0.229,0-0.343,0c-3.224,0-3.224,5,0,5c3.02,0,6.04,0,9.06,0C42.785,54.336,42.785,49.336,39.561,49.336L39.561,49.336z"
			/>
	</g>
</g>
<g>
	<g>
		<path fill="#6AB4BB" d="M25.012,49.336c-2.693,0-5.387,0-8.081,0c-3.224,0-3.224,5,0,5c0.103,0,0.205,0,0.308,0
			c3.224,0,3.224-5,0-5c-0.103,0-0.205,0-0.308,0c-3.224,0-3.224,5,0,5c2.693,0,5.387,0,8.081,0
			C28.236,54.336,28.236,49.336,25.012,49.336L25.012,49.336z"/>
	</g>
</g>
<g>
	<g>
		<path fill="#939598" d="M39.991,37.441c-4.02,0-8.04,0-12.06,0c-3.224,0-3.224,5,0,5c0.153,0,0.306,0,0.459,0c3.224,0,3.224-5,0-5
			c-0.153,0-0.306,0-0.459,0c-3.224,0-3.224,5,0,5c4.02,0,8.04,0,12.06,0C43.215,42.441,43.215,37.441,39.991,37.441L39.991,37.441z
			"/>
	</g>
</g>
<g>
	<g>
		<path fill="#939598" d="M15.8,72.737c-3.309,0-6.617,0-9.925,0c-3.224,0-3.224,5,0,5c0.125,0,0.251,0,0.376,0c3.224,0,3.224-5,0-5
			c-0.125,0-0.251,0-0.376,0c-3.224,0-3.224,5,0,5c3.309,0,6.617,0,9.925,0C19.024,77.737,19.024,72.737,15.8,72.737L15.8,72.737z"
			/>
	</g>
</g>
<g>
	<g>
		<path fill="#285E64" d="M4.585,78.987c4.836,0,4.836-7.5,0-7.5S-0.251,78.987,4.585,78.987L4.585,78.987z"/>
	</g>
</g>
<g>
	<g>
		<path fill="#285E64" d="M8.305,67.094c4.836,0,4.836-7.5,0-7.5S3.468,67.094,8.305,67.094L8.305,67.094z"/>
	</g>
</g>
<g>
	<g>
		<path fill="#285E64" d="M16.932,55.586c4.836,0,4.836-7.5,0-7.5S12.095,55.586,16.932,55.586L16.932,55.586z"/>
	</g>
</g>
<g>
	<g>
		<path fill="#285E64" d="M28.237,43.979c4.836,0,4.836-7.5,0-7.5S23.401,43.979,28.237,43.979L28.237,43.979z"/>
	</g>
</g>
<g>
	<g>
		<path fill="#023952" d="M58.553,2.151c-5.47,0-10.891,0.42-14.646,4.912c-7.095,8.487-6.373,23.232-6.416,33.461
			c-0.014,3.225,4.987,3.224,5,0c0.039-9.323-0.535-21.188,4.641-29.458c2.503-4,7.244-3.914,11.422-3.914
			C61.777,7.151,61.777,2.151,58.553,2.151L58.553,2.151z"/>
	</g>
</g>
<g>
	<g>
		<path fill="#023952" d="M21.429,77.737c5.47,0,10.891-0.422,14.646-4.912c7.096-8.487,6.374-23.231,6.416-33.461
			c0.014-3.225-4.986-3.224-5,0c-0.039,9.323,0.535,21.187-4.641,29.458c-2.502,4-7.243,3.915-11.421,3.915
			C18.205,72.737,18.205,77.737,21.429,77.737L21.429,77.737z"/>
	</g>
</g>
</svg>

<?xml version="1.0" encoding="UTF-8"?>
<svg id="Layer_1" xmlns="http://www.w3.org/2000/svg" version="1.1" viewBox="0 0 80 80">
  <!-- Generator: Adobe Illustrator 29.1.0, SVG Export Plug-In . SVG Version: 2.1.0 Build 142)  -->
  <defs>
    <style>
      .st0 {
        fill: #023952;
      }

      .st1 {
        fill: #6ab4bb;
      }

      .st2 {
        fill: #939598;
      }

      .st3 {
        fill: #285e64;
      }
    </style>
  </defs>
  <path class="st2" d="M42.62,19.04h12.71c3.22,0,3.22-5,0-5h-.48c-3.22,0-3.22,5,0,5h.48c3.22,0,3.22-5,0-5h-12.71c-3.22,0-3.22,5,0,5h0Z"/>
  <path class="st1" d="M60.81,19.04h9.43c3.22,0,3.22-5,0-5h-.36c-3.22,0-3.22,5,0,5h.36c3.22,0,3.22-5,0-5h-9.43c-3.22,0-3.22,5,0,5h0Z"/>
  <path class="st1" d="M40.42,30.55h9.06c3.22,0,3.22-5,0-5h-.34c-3.22,0-3.22,5,0,5h.34c3.22,0,3.22-5,0-5h-9.06c-3.22,0-3.22,5,0,5h0Z"/>
  <path class="st2" d="M54.97,30.55h8.08c3.23,0,3.23-5,0-5h-.31c-3.22,0-3.22,5,0,5h.31c3.23,0,3.23-5,0-5h-8.08c-3.22,0-3.22,5,0,5h0Z"/>
  <path class="st1" d="M40.42,42.45h11.63c3.22,0,3.22-5,0-5h-.44c-3.22,0-3.22,5,0,5h.44c3.22,0,3.22-5,0-5h-11.63c-3.22,0-3.22,5,0,5h0Z"/>
  <path class="st1" d="M64.18,7.15h9.93c3.22,0,3.22-5,0-5h-.38c-3.22,0-3.22,5,0,5h.38c3.22,0,3.22-5,0-5h-9.93c-3.22,0-3.22,5,0,5h0Z"/>
  <path class="st3" d="M75.4,8.4c4.84,0,4.84-7.5,0-7.5s-4.84,7.5,0,7.5h0Z"/>
  <path class="st3" d="M71.68,20.29c4.84,0,4.84-7.5,0-7.5s-4.84,7.5,0,7.5h0Z"/>
  <path class="st3" d="M63.05,31.8c4.84,0,4.84-7.5,0-7.5s-4.84,7.5,0,7.5h0Z"/>
  <path class="st3" d="M51.74,43.41c4.84,0,4.84-7.5,0-7.5s-4.84,7.5,0,7.5h0Z"/>
  <path class="st1" d="M37.36,60.84h-12.71c-3.22,0-3.22,5,0,5h.48c3.22,0,3.22-5,0-5h-.48c-3.22,0-3.22,5,0,5h12.71c3.22,0,3.22-5,0-5h0Z"/>
  <path class="st2" d="M19.16,60.84h-9.43c-3.22,0-3.22,5,0,5h.36c3.22,0,3.22-5,0-5h-.36c-3.22,0-3.22,5,0,5h9.43c3.22,0,3.22-5,0-5h0Z"/>
  <path class="st2" d="M39.56,49.34h-9.06c-3.22,0-3.22,5,0,5h.34c3.22,0,3.22-5,0-5h-.34c-3.22,0-3.22,5,0,5h9.06c3.22,0,3.22-5,0-5h0Z"/>
  <path class="st1" d="M25.01,49.34h-8.08c-3.22,0-3.22,5,0,5h.31c3.22,0,3.22-5,0-5h-.31c-3.22,0-3.22,5,0,5h8.08c3.22,0,3.22-5,0-5h0Z"/>
  <path class="st2" d="M39.99,37.44h-12.06c-3.22,0-3.22,5,0,5h.46c3.22,0,3.22-5,0-5h-.46c-3.22,0-3.22,5,0,5h12.06c3.22,0,3.22-5,0-5h0Z"/>
  <path class="st2" d="M15.8,72.74H5.88c-3.22,0-3.22,5,0,5h.38c3.22,0,3.22-5,0-5h-.38c-3.22,0-3.22,5,0,5h9.93c3.22,0,3.22-5,0-5h0Z"/>
  <path class="st3" d="M4.59,78.99c4.84,0,4.84-7.5,0-7.5s-4.84,7.5,0,7.5h0Z"/>
  <path class="st3" d="M8.31,67.09c4.84,0,4.84-7.5,0-7.5s-4.84,7.5,0,7.5h0Z"/>
  <path class="st3" d="M16.93,55.59c4.84,0,4.84-7.5,0-7.5s-4.84,7.5,0,7.5h0Z"/>
  <path class="st3" d="M28.24,43.98c4.84,0,4.84-7.5,0-7.5s-4.84,7.5,0,7.5h0Z"/>
  <path class="st0" d="M58.55,2.15c-5.47,0-10.89.42-14.65,4.91-7.1,8.49-6.37,23.23-6.42,33.46-.01,3.22,4.99,3.22,5,0,.04-9.32-.53-21.19,4.64-29.46,2.5-4,7.24-3.91,11.42-3.91,3.22,0,3.22-5,0-5h0Z"/>
  <path class="st0" d="M21.43,77.74c5.47,0,10.89-.42,14.65-4.91,7.1-8.49,6.37-23.23,6.42-33.46.01-3.22-4.99-3.22-5,0-.04,9.32.53,21.19-4.64,29.46-2.5,4-7.24,3.92-11.42,3.92-3.22,0-3.22,5,0,5h0Z"/>
</svg>
